img/icon/YouTube.svg

<?xml version="1.0" encoding="UTF-8" standalone="no"?>
<svg width="200px" height="200px" viewBox="0 0 200 200" version="1.1" xmlns="http://www.w3.org/2000/svg" xmlns:xlink="http://www.w3.org/1999/xlink" xmlns:sketch="http://www.bohemiancoding.com/sketch/ns">
    <title>YouTube</title>
    <description>Created with Sketch (http://www.bohemiancoding.com/sketch)</description>
    <defs></defs>
    <g id="Page-1" stroke="none" stroke-width="1" fill="none" fill-rule="evenodd" sketch:type="MSPage">
        <path d="M100,0 C44.771524,1.5158245e-14 0,44.771524 0,100 C-1.5158245e-14,155.228476 44.771524,200 100,200 C155.228476,200 200,155.228476 200,100 C200,44.771524 155.228476,-2.2737368e-14 100,0 L100,0 L100,0 Z M64.087495,29.3759643 C64.6671855,29.3754756 65.3010639,29.3978516 65.916503,29.4484003 L68.9044863,29.6958898 L71.5544351,39.1729278 C73.0122561,44.3845135 74.406065,48.4466351 74.6510724,48.2032774 C74.8960701,47.9599273 76.1385883,43.6944673 77.4157115,38.7262394 L79.7396985,29.6958898 L83.4158234,29.460473 C86.1576327,29.2845405 87.0919484,29.5003378 87.0919484,30.3055591 C87.0919484,30.89942 85.1777248,37.6692944 82.8363358,45.3541296 L78.5746868,59.3282334 L78.5746868,70.2479542 L78.5746868,81.1676751 L74.789908,81.1676751 L71.0051291,81.1676751 L70.6791673,69.3666501 L70.3532055,57.5595887 L65.6871225,43.7484659 C62.356745,33.8893485 61.2990274,29.8307579 61.9808159,29.5691269 C62.3091227,29.4431463 63.1213461,29.3767795 64.087495,29.3759643 L64.087495,29.3759643 L64.087495,29.3759643 Z M114.182997,42.4687639 L117.665959,42.4687639 L121.148922,42.4687639 L121.148922,58.7185641 L121.148922,74.9744006 L122.965857,74.9744006 C126.957165,74.9744006 127.342196,73.4186558 127.342196,57.3060629 L127.342196,42.4687639 L130.825159,42.4687639 L134.308121,42.4687639 L134.308121,61.8152013 L134.308121,81.1676751 L130.825159,81.1676751 C127.85811,81.1676751 127.342196,80.9410606 127.342196,79.6223746 C127.342196,77.6629529 127.219517,77.6751048 123.780762,80.0086997 C120.336256,82.3462043 117.800694,82.4674215 115.728298,80.3950248 C114.268106,78.9348337 114.182997,77.8135193 114.182997,60.656226 L114.182997,42.4687639 L114.182997,42.4687639 Z M97.9754512,42.4748003 C99.9359275,42.480033 101.929332,42.9111255 103.408148,43.7846839 C107.347619,46.1117866 107.992935,48.7192126 107.989723,62.3222531 C107.987405,73.1235923 107.804963,74.887149 106.474604,77.0690071 C103.565972,81.8393264 97.4558227,83.2963709 92.6574446,80.3708795 C88.5936907,77.8932703 87.8645986,75.0767342 87.8645986,61.8031287 C87.8645986,49.1445991 88.3641266,47.1062203 92.2107561,44.080464 C93.5713932,43.0101851 95.7535776,42.4688702 97.9754512,42.4748003 L97.9754512,42.4748003 L97.9754512,42.4748003 Z M97.9271606,48.6680748 C97.4965761,48.6680748 97.0683753,48.8221567 96.5750227,49.1328722 C95.4099704,49.8666214 95.1849109,51.4917192 94.9935042,60.7407346 C94.7182959,74.0388931 94.9135407,74.9744006 97.9271606,74.9744006 C99.6609664,74.9744006 100.323748,74.5530222 100.649545,73.2359376 C100.886479,72.2780966 100.983218,66.6549781 100.860817,60.7407346 C100.66941,51.4917192 100.444351,49.8666214 99.2792985,49.1328722 C98.7859459,48.8221567 98.357745,48.6680748 97.9271606,48.6680748 L97.9271606,48.6680748 L97.9271606,48.6680748 Z M97.7098527,90.0169347 C118.932022,89.9681148 142.48865,90.8679066 146.688634,92.1598319 C150.495694,93.3309069 153.468667,95.5853631 154.93426,98.419506 C159.079705,106.435905 160.100745,140.397381 156.708941,157.454813 C155.845267,161.798272 152.528639,166.425616 148.958294,168.271916 C145.391881,170.11618 105.875468,171.941137 85.932973,171.181427 C69.5362245,170.556791 54.2104406,169.269832 51.9665445,168.332279 C48.2754012,166.790019 44.7075768,162.057706 43.7692085,157.454813 C42.4622339,151.043886 41.3327796,131.609939 41.8315466,124.128235 C43.2747703,102.479219 44.4587969,97.6767419 49.1717238,94.320838 C52.8606554,91.6940938 55.1106438,91.3914042 78.0736715,90.4032599 C83.8257704,90.1557375 90.6357956,90.0332087 97.7098527,90.0169347 L97.7098527,90.0169347 L97.7098527,90.0169347 Z M49.9383377,102.838099 L49.9383377,106.707387 L49.9383377,110.582711 L54.1939503,110.582711 L58.4555992,110.582711 L58.4555992,133.025785 L58.4555992,155.474896 L62.7112118,155.474896 L66.9668244,155.474896 L66.9668244,133.025785 L66.9668244,110.582711 L71.222437,110.582711 L75.4840859,110.582711 L75.4840859,106.707387 L75.4840859,102.838099 L62.7112118,102.838099 L49.9383377,102.838099 L49.9383377,102.838099 Z M102.569098,102.838099 L102.569098,129.156498 L102.569098,155.474896 L106.052061,155.474896 C109.001346,155.474896 109.535023,155.238744 109.535023,153.947705 C109.535023,152.501671 109.682275,152.52095 112.353989,154.33403 C115.897251,156.738556 118.154558,156.753549 120.913505,154.382321 L123.080547,152.511058 L123.297855,136.774346 C123.497983,122.134848 123.406982,120.85377 121.95779,118.514448 C119.997113,115.349468 115.882499,114.849077 112.112536,117.319255 L110.31371,118.496339 L110.31371,110.667219 L110.31371,102.838099 L106.444422,102.838099 L102.569098,102.838099 L102.569098,102.838099 Z M139.378638,115.840354 C137.143326,115.836951 134.972336,116.342372 133.613943,117.337364 C129.596398,120.280116 128.893533,123.034464 128.893533,135.736098 C128.893533,148.906921 129.607105,151.388826 134.308121,154.557374 C138.061774,157.087398 143.469875,156.624751 146.742961,153.488944 C149.242241,151.094481 150.869378,146.850945 150.443231,143.830816 C150.207124,142.157501 149.731659,141.901609 146.495471,141.693955 L142.819346,141.458538 L142.819346,144.500849 C142.819346,147.925486 141.445039,149.526347 138.829332,149.148823 C136.814197,148.857987 136.046457,146.790209 135.931894,141.37403 L135.853421,137.728086 L143.012509,137.504742 L150.171596,137.281398 L150.135378,130.315473 C150.094588,122.250195 148.854465,119.078892 144.938098,117.053656 C143.375637,116.245677 141.350973,115.843358 139.378638,115.840354 L139.378638,115.840354 L139.378638,115.840354 Z M89.4159354,115.91279 L89.4159354,131.051906 C89.4159354,145.306022 89.3189832,146.275899 87.816308,147.778576 C86.9387164,148.656167 85.6316433,149.262839 84.9128333,149.124677 C83.7431277,148.89985 83.5846765,147.145862 83.3977145,132.434225 L83.1924792,115.997299 L79.7698802,115.997299 C77.8877892,115.997299 76.1162046,116.374 75.8341931,116.830312 C75.5521815,117.286616 75.5756875,125.690103 75.88852,135.506717 C76.3966361,151.451481 76.6126015,153.506775 77.9046542,154.798827 C79.5485893,156.44277 81.7760665,156.648757 84.2428006,155.378315 C85.1726524,154.899409 86.7135931,153.793957 87.671436,152.921529 L89.4159354,151.333974 L89.4159354,153.404435 C89.4159354,155.341705 89.6391038,155.474896 92.8988977,155.474896 L96.3818601,155.474896 L96.544841,139.99171 C96.6348973,131.477566 96.7216331,122.681036 96.7380036,120.446074 L96.7681852,116.383624 L93.0920603,116.148207 L89.4159354,115.91279 L89.4159354,115.91279 Z M139.891726,122.263009 C140.409336,122.244369 140.800504,122.59833 141.606044,123.403876 C142.345574,124.143406 142.819346,125.967713 142.819346,128.05185 L142.819346,131.480485 L139.771,131.480485 C138.093296,131.480485 136.494391,131.118987 136.221638,130.677653 C135.318116,129.21572 136.716688,123.742594 138.195517,122.951151 C139.009109,122.515731 139.489141,122.277508 139.891726,122.263009 L139.891726,122.263009 L139.891726,122.263009 Z M113.35602,122.456172 C113.848071,122.467043 114.279594,122.727826 114.816812,123.26504 C115.766362,124.214598 116.117462,126.65264 116.356076,133.985562 C116.730203,145.482808 116.058325,148.796193 113.295657,149.124677 C112.219554,149.25262 111.009284,148.905679 110.603453,148.352027 C110.17989,147.774164 109.987528,142.312945 110.156765,135.530862 C110.42897,124.622239 110.575043,123.6531 112.021991,122.878715 C112.554867,122.593528 112.973315,122.447715 113.35602,122.456172 L113.35602,122.456172 L113.35602,122.456172 Z" id="YouTube" fill="#808080" sketch:type="MSShapeGroup"></path>
    </g>
</svg>

<?xml version="1.0" encoding="utf-8"?>
<!-- Generator: Adobe Illustrator 18.0.0, SVG Export Plug-In . SVG Version: 6.00 Build 0)  -->
<!DOCTYPE svg PUBLIC "-//W3C//DTD SVG 1.1//EN" "http://www.w3.org/Graphics/SVG/1.1/DTD/svg11.dtd">
<svg version="1.1" id="圖層_1" xmlns:sketch="http://www.bohemiancoding.com/sketch/ns"
	 xmlns="http://www.w3.org/2000/svg" xmlns:xlink="http://www.w3.org/1999/xlink" x="0px" y="0px" viewBox="0 0 200 200"
	 enable-background="new 0 0 200 200" xml:space="preserve">
<title>YouTube</title>
<description>Created with Sketch (http://www.bohemiancoding.com/sketch)</description>
<g id="Page-1" sketch:type="MSPage">
	<path id="YouTube" sketch:type="MSShapeGroup" fill="#FFFFFF" d="M100,0C44.8,0,0,44.8,0,100s44.8,100,100,100s100-44.8,100-100
		S155.2,0,100,0L100,0L100,0z M64.1,29.4c0.6,0,1.2,0,1.8,0.1l3,0.2l2.6,9.5c1.5,5.2,2.9,9.3,3.1,9c0.2-0.2,1.5-4.5,2.8-9.5l2.3-9
		l3.7-0.2c2.7-0.2,3.7,0,3.7,0.8c0,0.6-1.9,7.4-4.3,15l-4.3,14v10.9v10.9h-3.8H71l-0.3-11.8l-0.3-11.8l-4.7-13.8
		c-3.3-9.9-4.4-13.9-3.7-14.2C62.3,29.4,63.1,29.4,64.1,29.4L64.1,29.4L64.1,29.4z M114.2,42.5h3.5h3.5v16.2V75h1.8
		c4,0,4.4-1.6,4.4-17.7V42.5h3.5h3.5v19.3v19.4h-3.5c-3,0-3.5-0.2-3.5-1.5c0-2-0.1-1.9-3.6,0.4c-3.4,2.3-6,2.5-8.1,0.4
		c-1.5-1.5-1.5-2.6-1.5-19.7V42.5L114.2,42.5z M98,42.5c2,0,4,0.4,5.4,1.3c3.9,2.3,4.6,4.9,4.6,18.5c0,10.8-0.2,12.6-1.5,14.7
		c-2.9,4.8-9,6.2-13.8,3.3c-4.1-2.5-4.8-5.3-4.8-18.6c0-12.7,0.5-14.7,4.3-17.7C93.6,43,95.8,42.5,98,42.5L98,42.5L98,42.5z
		 M97.9,48.7c-0.4,0-0.9,0.2-1.4,0.5c-1.2,0.7-1.4,2.4-1.6,11.6C94.7,74,94.9,75,97.9,75c1.7,0,2.4-0.4,2.7-1.7
		c0.2-1,0.3-6.6,0.2-12.5c-0.2-9.2-0.4-10.9-1.6-11.6C98.8,48.8,98.4,48.7,97.9,48.7L97.9,48.7L97.9,48.7z M97.7,90
		c21.2,0,44.8,0.9,49,2.1c3.8,1.2,6.8,3.4,8.2,6.3c4.1,8,5.2,42,1.8,59c-0.9,4.3-4.2,9-7.8,10.8c-3.6,1.8-43.1,3.7-63,2.9
		c-16.4-0.6-31.7-1.9-34-2.8c-3.7-1.5-7.3-6.3-8.2-10.9c-1.3-6.4-2.4-25.8-1.9-33.3c1.4-21.6,2.6-26.5,7.3-29.8
		c3.7-2.6,5.9-2.9,28.9-3.9C83.8,90.2,90.6,90,97.7,90L97.7,90L97.7,90z M49.9,102.8v3.9v3.9h4.3h4.3V133v22.4h4.3H67V133v-22.4h4.3
		h4.3v-3.9v-3.9H62.7H49.9L49.9,102.8z M102.6,102.8v26.3v26.3h3.5c2.9,0,3.5-0.2,3.5-1.5c0-1.4,0.1-1.4,2.8,0.4
		c3.5,2.4,5.8,2.4,8.6,0l2.2-1.9l0.2-15.7c0.2-14.6,0.1-15.9-1.3-18.3c-2-3.2-6.1-3.7-9.8-1.2l-1.8,1.2v-7.8v-7.8h-3.9H102.6
		L102.6,102.8z M139.4,115.8c-2.2,0-4.4,0.5-5.8,1.5c-4,2.9-4.7,5.7-4.7,18.4c0,13.2,0.7,15.7,5.4,18.8c3.8,2.5,9.2,2.1,12.4-1.1
		c2.5-2.4,4.1-6.6,3.7-9.7c-0.2-1.7-0.7-1.9-3.9-2.1l-3.7-0.2v3c0,3.4-1.4,5-4,4.6c-2-0.3-2.8-2.4-2.9-7.8l-0.1-3.6l7.2-0.2l7.2-0.2
		l0-7c0-8.1-1.3-11.2-5.2-13.3C143.4,116.2,141.4,115.8,139.4,115.8L139.4,115.8L139.4,115.8z M89.4,115.9v15.1
		c0,14.3-0.1,15.2-1.6,16.7c-0.9,0.9-2.2,1.5-2.9,1.3c-1.2-0.2-1.3-2-1.5-16.7L83.2,116h-3.4c-1.9,0-3.7,0.4-3.9,0.8
		c-0.3,0.5-0.3,8.9,0.1,18.7c0.5,15.9,0.7,18,2,19.3c1.6,1.6,3.9,1.8,6.3,0.6c0.9-0.5,2.5-1.6,3.4-2.5l1.7-1.6v2.1
		c0,1.9,0.2,2.1,3.5,2.1h3.5l0.2-15.5c0.1-8.5,0.2-17.3,0.2-19.5l0-4.1l-3.7-0.2L89.4,115.9L89.4,115.9z M139.9,122.3
		c0.5,0,0.9,0.3,1.7,1.1c0.7,0.7,1.2,2.6,1.2,4.6v3.4h-3c-1.7,0-3.3-0.4-3.5-0.8c-0.9-1.5,0.5-6.9,2-7.7
		C139,122.5,139.5,122.3,139.9,122.3L139.9,122.3L139.9,122.3z M113.4,122.5c0.5,0,0.9,0.3,1.5,0.8c0.9,0.9,1.3,3.4,1.5,10.7
		c0.4,11.5-0.3,14.8-3.1,15.1c-1.1,0.1-2.3-0.2-2.7-0.8c-0.4-0.6-0.6-6-0.4-12.8c0.3-10.9,0.4-11.9,1.9-12.7
		C112.6,122.6,113,122.4,113.4,122.5L113.4,122.5L113.4,122.5z"/>
</g>
</svg>
